.local/share/icons/Gruvbox-Plus-Dark/mimetypes/scalable/application-x-mono-develop.svg

<svg width="256" height="256" fill="none" version="1.1" viewBox="0 0 256 256" xmlns="http://www.w3.org/2000/svg">
  <path d="m55.08 15h100.5l60.4 60.15 2e-3 148.9c0 8.911-7.262 16.13-16.17 16.13h-144.8c-8.91 0-16.08-7.174-16.08-16.08v-193c0-8.91 7.173-16.08 16.08-16.08h1e-4z" fill="#ebdbb2"/>
  <path d="m155.6 22.98h-100.5c-4.504 0-8.105 3.601-8.105 8.105v193c0 4.504 3.601 8.105 8.105 8.105h144.8c4.533 0 8.194-3.674 8.194-8.149v-148.9l-52.42-52.17zm-1e-3 -7.979h-100.5c-8.91 0-16.08 7.173-16.08 16.08v193c0 8.91 7.173 16.08 16.08 16.08h144.8c8.911 0 16.17-7.218 16.17-16.13l-2e-3 -148.9-60.4-60.15z" clip-rule="evenodd" fill="url(#paint0_linear)" fill-rule="evenodd"/>
  <path d="m86.65 167c-5.372-13-12.49-24.46-12.65-45.7-0.163-21.94 18.66-36.15 33.54-36.15 18.01-2e-3 33.86 15.21 34.69 27.81 0.755 11.37-3.291 27.9-24.17 27.78-9.97-0.058-20.33-8.732-20.39-21.64-0.06-13.93 17.39-15.28 21.79-11.74 1.708 1.377 1.656 4.102 0.144 3.61-9.393-3.058-15.2 2.97-14.76 8.966 0.585 8.137 5.412 12.98 14.07 13.39 12.48 0.593 15.98-11.55 15.66-16.47-0.387-5.99-5.61-18.31-21.86-20.56-7.671-1.062-14.03 1.236-18.67 5.738-4.644 4.504-7.255 9.16-7.637 16.8-0.394 7.9 1.33 12.54 6.056 22.9 1.688 3.702 6.402 11.17 10.05 18.65l-15.84 6.623z" clip-rule="evenodd" fill="url(#paint1_linear)" fill-rule="evenodd"/>
  <path d="m86.65 167c-5.372-13-12.49-24.46-12.65-45.7-0.163-21.94 18.66-36.15 33.54-36.15 18.01-2e-3 33.86 15.21 34.69 27.81 0.755 11.37-3.291 27.9-24.17 27.78-9.97-0.058-20.33-8.732-20.39-21.64-0.06-13.93 17.39-15.28 21.79-11.74 1.708 1.377 1.656 4.102 0.144 3.61-9.393-3.058-15.2 2.97-14.76 8.966 0.585 8.137 5.412 12.98 14.07 13.39 12.48 0.593 15.98-11.55 15.66-16.47-0.387-5.99-5.61-18.31-21.86-20.56-7.671-1.062-14.03 1.236-18.67 5.738-4.644 4.504-7.255 9.16-7.637 16.8-0.394 7.9 1.33 12.54 6.056 22.9 1.688 3.702 6.402 11.17 10.05 18.65l-15.84 6.623z" clip-rule="evenodd" fill="#ebdbb2" fill-opacity=".4" fill-rule="evenodd"/>
  <path d="m168.9 85.16c5.372 13 12.49 24.46 12.65 45.7 0.163 21.94-18.66 36.15-33.54 36.15-18.01 2e-3 -33.86-15.21-34.69-27.8-0.754-11.37 3.292-27.91 24.18-27.78 9.97 0.058 20.33 8.732 20.39 21.64 0.059 13.92-17.39 15.28-21.79 11.74-1.709-1.377-1.657-4.102-0.145-3.61 9.394 3.058 15.2-2.97 14.76-8.966-0.585-8.137-5.412-12.98-14.06-13.39-12.48-0.593-15.98 11.55-15.66 16.47 0.388 5.99 5.611 18.31 21.86 20.56 7.672 1.063 14.03-1.235 18.67-5.737 4.644-4.504 7.255-9.16 7.637-16.8 0.394-7.901-1.33-12.54-6.056-22.9-1.688-3.703-6.403-11.17-10.05-18.65l15.84-6.625z" clip-rule="evenodd" fill="url(#paint2_linear)" fill-rule="evenodd"/>
  <path d="m107.5 85.11c-14.88 1e-3 -33.67 14.21-33.5 36.16 0.158 21.24 7.31 32.71 12.68 45.71l15.81-6.625c-1.41-2.89-2.955-5.658-4.448-8.329h-3.502v-6.34c-0.86-1.55-1.608-2.937-2.082-3.976-4.725-10.36-6.452-15-6.057-22.9 0.381-7.639 3.022-12.25 7.666-16.75 4.644-4.502 10.97-6.835 18.64-5.773 7.683 1.065 12.87 4.4 16.28 8.234h3.217v4.733c1.465 2.828 2.236 5.553 2.366 7.571 0.142 2.19-0.548 5.799-2.366 9.086v11.26c8.632-5.465 10.57-16.15 10.03-24.23-0.836-12.6-16.72-27.83-34.74-27.82z" clip-rule="evenodd" fill="url(#paint3_linear)" fill-rule="evenodd"/>
  <path d="m107.5 85.11c-14.88 1e-3 -33.67 14.21-33.5 36.16 0.158 21.24 7.31 32.71 12.68 45.71l15.81-6.625c-1.41-2.89-2.955-5.658-4.448-8.329h-3.502v-6.34c-0.86-1.55-1.608-2.937-2.082-3.976-4.725-10.36-6.452-15-6.057-22.9 0.381-7.639 3.022-12.25 7.666-16.75 4.644-4.502 10.97-6.835 18.64-5.773 7.683 1.065 12.87 4.4 16.28 8.234h3.217v4.733c1.465 2.828 2.236 5.553 2.366 7.571 0.142 2.19-0.548 5.799-2.366 9.086v11.26c8.632-5.465 10.57-16.15 10.03-24.23-0.836-12.6-16.72-27.83-34.74-27.82z" clip-rule="evenodd" fill="#ebdbb2" fill-opacity=".4" fill-rule="evenodd"/>
  <path d="m155.6 17v44.23c0 8.91 7.259 15.93 16.17 15.93l44.23-0.0112v-2l-60.4-58.15z" fill="#282828" opacity=".25"/>
  <path d="m155.6 15v44.23c0 8.91 7.259 15.93 16.17 15.93l44.23-0.0112-60.4-60.15z" fill="url(#paint4_linear)"/>
  <defs>
    <linearGradient id="paint0_linear" x1="126.4" x2="127.1" y1="14.91" y2="240.9" gradientUnits="userSpaceOnUse">
      <stop stop-color="#83a598" offset="0"/>
      <stop stop-color="#458588" offset="1"/>
    </linearGradient>
    <linearGradient id="paint1_linear" x1="107.7" x2="108" y1="85.13" y2="167.3" gradientUnits="userSpaceOnUse">
      <stop stop-color="#83a598" offset="0"/>
      <stop stop-color="#458588" offset="1"/>
    </linearGradient>
    <linearGradient id="paint2_linear" x1="147" x2="147.2" y1="85.13" y2="167.3" gradientUnits="userSpaceOnUse">
      <stop stop-color="#83a598" offset="0"/>
      <stop stop-color="#458588" offset="1"/>
    </linearGradient>
    <linearGradient id="paint3_linear" x1="107.7" x2="108" y1="85.08" y2="167.2" gradientUnits="userSpaceOnUse">
      <stop stop-color="#83a598" offset="0"/>
      <stop stop-color="#458588" offset="1"/>
    </linearGradient>
    <linearGradient id="paint4_linear" x1="185.4" x2="185.6" y1="14.98" y2="75.36" gradientUnits="userSpaceOnUse">
      <stop stop-color="#83a598" offset="0"/>
      <stop stop-color="#458588" offset="1"/>
    </linearGradient>
  </defs>
</svg>

<svg width="256" height="256" viewBox="0 0 256 256" fill="none" xmlns="http://www.w3.org/2000/svg">
<g opacity="0.4" filter="url(#filter0_f)">
<path d="M55.0839 15.5636H155.608L216.009 75.7129L216.011 224.609C216.011 233.52 208.749 240.737 199.838 240.737H55.0838C46.1734 240.737 39 233.564 39 224.654V31.6474C39 22.737 46.1734 15.5636 55.0838 15.5636H55.0839Z" fill="#282828"/>
</g>
<path d="M55.0839 15H155.608L216.009 75.1493L216.011 224.045C216.011 232.956 208.749 240.174 199.838 240.174H55.0838C46.1734 240.174 39 233 39 224.09V31.0838C39 22.1734 46.1734 15 55.0838 15H55.0839Z" fill="#ebdbb2"/>
<path fill-rule="evenodd" clip-rule="evenodd" d="M155.609 22.9787H55.0839C50.58 22.9787 46.9787 26.5799 46.9787 31.0838V224.09C46.9787 228.594 50.5799 232.195 55.0838 232.195H199.838C204.371 232.195 208.032 228.521 208.032 224.046V75.1493L155.609 22.9787ZM155.608 15H55.0839C46.1735 15 39 22.1734 39 31.0838V224.09C39 233 46.1734 240.174 55.0838 240.174H199.838C208.749 240.174 216.011 232.956 216.011 224.045L216.009 75.1493L155.608 15Z" fill="url(#paint0_linear)"/>
<path fill-rule="evenodd" clip-rule="evenodd" d="M86.653 167.01C81.281 154.006 74.159 142.546 74.001 121.308C73.838 99.366 92.66 85.16 107.536 85.158C125.547 85.156 141.394 100.366 142.229 112.964C142.984 124.334 138.938 140.869 118.055 140.746C108.085 140.688 97.723 132.014 97.669 119.108C97.609 105.182 115.055 103.824 119.455 107.369C121.163 108.746 121.111 111.471 119.599 110.979C110.206 107.921 104.403 113.949 104.834 119.945C105.419 128.082 110.246 132.923 118.9 133.335C131.382 133.928 134.876 121.788 134.557 116.861C134.17 110.871 128.947 98.55 112.699 96.299C105.028 95.237 98.669 97.535 94.026 102.037C89.382 106.541 86.771 111.197 86.389 118.835C85.995 126.735 87.719 131.371 92.445 141.737C94.133 145.439 98.847 152.907 102.498 160.387L86.653 167.01V167.01Z" fill="url(#paint1_linear)"/>
<path fill-rule="evenodd" clip-rule="evenodd" d="M86.653 167.01C81.281 154.006 74.159 142.546 74.001 121.308C73.838 99.366 92.66 85.16 107.536 85.158C125.547 85.156 141.394 100.366 142.229 112.964C142.984 124.334 138.938 140.869 118.055 140.746C108.085 140.688 97.723 132.014 97.669 119.108C97.609 105.182 115.055 103.824 119.455 107.369C121.163 108.746 121.111 111.471 119.599 110.979C110.206 107.921 104.403 113.949 104.834 119.945C105.419 128.082 110.246 132.923 118.9 133.335C131.382 133.928 134.876 121.788 134.557 116.861C134.17 110.871 128.947 98.55 112.699 96.299C105.028 95.237 98.669 97.535 94.026 102.037C89.382 106.541 86.771 111.197 86.389 118.835C85.995 126.735 87.719 131.371 92.445 141.737C94.133 145.439 98.847 152.907 102.498 160.387L86.653 167.01V167.01Z" fill="#ebdbb2" fill-opacity="0.4"/>
<path fill-rule="evenodd" clip-rule="evenodd" d="M168.876 85.158C174.248 98.163 181.37 109.623 181.529 130.861C181.692 152.804 162.869 167.01 147.993 167.011C129.983 167.013 114.136 151.803 113.3 139.206C112.546 127.836 116.592 111.3 137.475 111.424C147.445 111.482 157.806 120.156 157.861 133.061C157.92 146.986 140.474 148.346 136.075 144.8C134.366 143.423 134.418 140.698 135.93 141.19C145.324 144.248 151.126 138.22 150.695 132.224C150.11 124.087 145.283 119.247 136.63 118.835C124.148 118.242 120.653 130.382 120.972 135.309C121.36 141.299 126.583 153.621 142.83 155.869C150.502 156.932 156.86 154.634 161.504 150.132C166.148 145.628 168.759 140.972 169.141 133.335C169.535 125.434 167.811 120.798 163.085 110.433C161.397 106.73 156.682 99.263 153.031 91.783L168.876 85.158V85.158Z" fill="url(#paint2_linear)"/>
<path fill-rule="evenodd" clip-rule="evenodd" d="M107.51 85.112C92.634 85.113 73.842 99.324 74.006 121.267C74.164 142.504 81.316 153.977 86.688 166.98L102.494 160.355C101.084 157.465 99.539 154.697 98.046 152.026H94.544V145.686C93.684 144.136 92.936 142.749 92.462 141.71C87.737 131.345 86.01 126.706 86.405 118.806C86.786 111.167 89.427 106.556 94.071 102.053C98.715 97.551 105.045 95.218 112.716 96.28C120.399 97.345 125.588 100.68 128.996 104.514H132.213V109.247C133.678 112.075 134.449 114.8 134.579 116.818C134.721 119.008 134.031 122.617 132.213 125.904V137.167C140.845 131.702 142.782 121.017 142.246 112.937C141.41 100.339 125.521 85.11 107.51 85.112Z" fill="url(#paint3_linear)"/>
<path fill-rule="evenodd" clip-rule="evenodd" d="M107.51 85.112C92.634 85.113 73.842 99.324 74.006 121.267C74.164 142.504 81.316 153.977 86.688 166.98L102.494 160.355C101.084 157.465 99.539 154.697 98.046 152.026H94.544V145.686C93.684 144.136 92.936 142.749 92.462 141.71C87.737 131.345 86.01 126.706 86.405 118.806C86.786 111.167 89.427 106.556 94.071 102.053C98.715 97.551 105.045 95.218 112.716 96.28C120.399 97.345 125.588 100.68 128.996 104.514H132.213V109.247C133.678 112.075 134.449 114.8 134.579 116.818C134.721 119.008 134.031 122.617 132.213 125.904V137.167C140.845 131.702 142.782 121.017 142.246 112.937C141.41 100.339 125.521 85.11 107.51 85.112Z" fill="#ebdbb2" fill-opacity="0.4"/>
<path opacity="0.25" d="M155.608 17V61.2306C155.608 70.141 162.867 77.1605 171.777 77.1605L216.009 77.1493V75.1493L155.608 17Z" fill="#282828"/>
<path d="M155.608 15V59.2306C155.608 68.141 162.867 75.1605 171.777 75.1605L216.009 75.1493L155.608 15Z" fill="url(#paint4_linear)"/>
<defs>
<filter id="filter0_f" x="23.8778" y="0.441412" width="207.255" height="255.418" filterUnits="userSpaceOnUse" color-interpolation-filters="sRGB">
<feFlood flood-opacity="0" result="BackgroundImageFix"/>
<feBlend mode="normal" in="SourceGraphic" in2="BackgroundImageFix" result="shape"/>
<feGaussianBlur stdDeviation="7.5611" result="effect1_foregroundBlur"/>
</filter>
<linearGradient id="paint0_linear" x1="126.411" y1="14.914" x2="127.127" y2="240.916" gradientUnits="userSpaceOnUse">
<stop stop-color="#83a598"/>
<stop offset="1" stop-color="#458588"/>
</linearGradient>
<linearGradient id="paint1_linear" x1="107.734" y1="85.1267" x2="107.979" y2="167.28" gradientUnits="userSpaceOnUse">
<stop stop-color="#83a598"/>
<stop offset="1" stop-color="#458588"/>
</linearGradient>
<linearGradient id="paint2_linear" x1="146.951" y1="85.1267" x2="147.196" y2="167.281" gradientUnits="userSpaceOnUse">
<stop stop-color="#83a598"/>
<stop offset="1" stop-color="#458588"/>
</linearGradient>
<linearGradient id="paint3_linear" x1="107.744" y1="85.0807" x2="107.99" y2="167.25" gradientUnits="userSpaceOnUse">
<stop stop-color="#83a598"/>
<stop offset="1" stop-color="#458588"/>
</linearGradient>
<linearGradient id="paint4_linear" x1="185.435" y1="14.977" x2="185.585" y2="75.3591" gradientUnits="userSpaceOnUse">
<stop stop-color="#83a598"/>
<stop offset="1" stop-color="#458588"/>
</linearGradient>
</defs>
</svg>
